!!!OTL: STOLZ HEINRICH DER WOLLT FREIEN GEHN
!!!ARE: Europa, Mitteleuropa, Deutschland, Niederrhein; Siebengebirge
!!!SCT: E0040
!!!YEM: Copyright 1995, estate of Helmut Schaffrath.
**kern
*ICvox
*Ivox
*M2/4
*k[]
*a:
{8e
=1
8a
8ccn
8b
8a
=2
8a
8g#
8g#}
{8e
=3
8a
8b
8ccn
8ccn
=4
4b
8r}
{8a
=5
8ccn
8b
8ccn
8a
=6
4ccn
4ee}
=7
{8.a
16b
8ccn
8a
=8
8g#
8f#
8e}
{8b
=9
8ccn
8b
8ccn
8a
=10
4ccn
8ee}
{8ccn
=11
8b
8a
8g#
8b
=12
4a
8r}
==
!!!AGN: erzaehlendes Volks - Lied, Ritter - Sage, Ballade ?
!!!ONB: ESAC (Essen Associative Code) Database: ERK1
!!!AMT: simple duple
!!!AIN: vox
!!!EED: Helmut Schaffrath
!!!EEV: 1.0
*-
